**kern	**kern	**dynam
*part1	*part1	*part1
*staff2	*staff1	*
*I"Piano	*	*
*clefF4	*clefG2	*
*k[b-e-a-d-]	*k[b-e-a-d-]	*
=1	=1	=1
4C	(2.e-	.
4E- 4A-	.	.
4E- 4A-	.	.
=	=	=
4C	2en)	.
4En 4B-	.	.
4E 4B-	4r	.
=	=	=
4DD-	4f	.
4F 4A- 4d-	4.g	.
4F 4A- 4d-	.	.
.	8a-	.
=	=	=
4DD-	2b-	.
4F-X 4A- 4d-	.	.
4F- 4A- 4d-	4a-	<
=	=	=
4CC	2ee-	.
4E- 4A- 4c	.	.
4E- 4A- 4c	4cc	[
=	=	=
4FF	2a-	.
!	!	!LO:DY:a
4F 4A- 4c	.	>
4F 4A- 4c	4r	.
=	=	=
*	*^	*
4BB-	4cc	4r	.
4F 4A-	4.b-	4dn	]
4F 4A-	.	4d	.
.	8a-	.	.
*	*v	*v	*
=	=	=
*-	*-	*-
!!!system-decoration: {(s1,s2)}
